docs/assets/icons/arm.svg

<?xml version="1.0" encoding="UTF-8"?>
<svg role="img" version="1.1" viewBox="0 0 24 9" xmlns="http://www.w3.org/2000/svg"><title>Arm</title><path d="m5.419 1.034h1.614v6.911h-1.614v-.72c-.71.822-1.573.933-2.07.933-2.131 0-3.349-1.776-3.349-3.673 0-2.253 1.542-3.633 3.37-3.633.507 0 1.4.132 2.049.984zm-3.765 3.491c0 1.198.751 2.202 1.918 2.202 1.015 0 1.959-.74 1.959-2.181 0-1.512-.934-2.233-1.959-2.233-1.167-.01-1.918.974-1.918 2.212zm7.297-3.49h1.613v.618a3 3 0 01.67-.578c.314-.183.619-.233.984-.233.396 0 .822.06 1.269.324l-.66 1.462a1.432 1.432 0 00-.822-.244c-.345 0-.69.05-1.005.376-.446.477-.446 1.136-.446 1.593v3.582h-1.614zm5.56 0h1.614v.639c.538-.66 1.177-.822 1.705-.822.72 0 1.4.345 1.786 1.015.579-.822 1.441-1.015 2.05-1.015.842 0 1.573.396 1.969 1.086.132.233.365.74.365 1.745v4.272h-1.614v-3.805c0-.771-.08-1.086-.152-1.228-.101-.264-.345-.609-.923-.609-.396 0-.741.213-.954.508-.284.395-.315.984-.315 1.572v3.562h-1.612v-3.805c0-.771-.081-1.086-.152-1.228-.102-.264-.345-.609-.924-.609-.396 0-.74.213-.954.508-.284.395-.314.984-.314 1.572v3.562h-1.573z" fill="#0091bd"/></svg>

<?xml version="1.0" encoding="UTF-8" standalone="no"?>
<svg
   role="img"
   viewBox="0 0 24 9"
   version="1.1"
   id="svg1"
   sodipodi:docname="arm.svg"
   width="24"
   height="9"
   inkscape:version="1.4.3 (0d15f75042, 2025-12-25)"
   xmlns:inkscape="http://www.inkscape.org/namespaces/inkscape"
   xmlns:sodipodi="http://sodipodi.sourceforge.net/DTD/sodipodi-0.dtd"
   xmlns="http://www.w3.org/2000/svg"
   xmlns:svg="http://www.w3.org/2000/svg"
   xmlns:rdf="http://www.w3.org/1999/02/22-rdf-syntax-ns#"
   xmlns:cc="http://creativecommons.org/ns#"
   xmlns:dc="http://purl.org/dc/elements/1.1/">
  <defs
     id="defs1" />
  <sodipodi:namedview
     id="namedview1"
     pagecolor="#505050"
     bordercolor="#ffffff"
     borderopacity="1"
     inkscape:showpageshadow="0"
     inkscape:pageopacity="0"
     inkscape:pagecheckerboard="1"
     inkscape:deskcolor="#505050"
     inkscape:zoom="48.333333"
     inkscape:cx="12"
     inkscape:cy="7.0344828"
     inkscape:window-width="2560"
     inkscape:window-height="1368"
     inkscape:window-x="0"
     inkscape:window-y="0"
     inkscape:window-maximized="1"
     inkscape:current-layer="svg1" />
  <title
     id="title1">Arm</title>
  <path
     d="M 5.419,1.034 H 7.033 V 7.945 H 5.419 V 7.225 C 4.709,8.047 3.846,8.158 3.349,8.158 1.218,8.158 0,6.382 0,4.485 0,2.232 1.542,0.852 3.37,0.852 c 0.507,0 1.4,0.132 2.049,0.984 z M 1.654,4.525 c 0,1.198 0.751,2.202 1.918,2.202 1.015,0 1.959,-0.74 1.959,-2.181 C 5.531,3.034 4.597,2.313 3.572,2.313 2.405,2.303 1.654,3.287 1.654,4.525 Z m 7.297,-3.49 h 1.613 v 0.618 a 3,3 0 0 1 0.67,-0.578 c 0.314,-0.183 0.619,-0.233 0.984,-0.233 0.396,0 0.822,0.06 1.269,0.324 l -0.66,1.462 A 1.432,1.432 0 0 0 12.005,2.384 C 11.66,2.384 11.315,2.434 11,2.76 10.554,3.237 10.554,3.896 10.554,4.353 V 7.935 H 8.94 Z m 5.56,0 h 1.614 v 0.639 c 0.538,-0.66 1.177,-0.822 1.705,-0.822 0.72,0 1.4,0.345 1.786,1.015 0.579,-0.822 1.441,-1.015 2.05,-1.015 0.842,0 1.573,0.396 1.969,1.086 C 23.767,2.171 24,2.678 24,3.683 V 7.955 H 22.386 V 4.15 c 0,-0.771 -0.08,-1.086 -0.152,-1.228 -0.101,-0.264 -0.345,-0.609 -0.923,-0.609 -0.396,0 -0.741,0.213 -0.954,0.508 -0.284,0.395 -0.315,0.984 -0.315,1.572 V 7.955 H 18.43 V 4.15 c 0,-0.771 -0.081,-1.086 -0.152,-1.228 -0.102,-0.264 -0.345,-0.609 -0.924,-0.609 -0.396,0 -0.74,0.213 -0.954,0.508 -0.284,0.395 -0.314,0.984 -0.314,1.572 v 3.562 h -1.573 z"
     id="path1"
     style="fill:#0091bd;fill-opacity:1" />
  <metadata
     id="metadata1">
    <rdf:RDF>
      <cc:Work
         rdf:about="">
        <dc:title>Arm</dc:title>
      </cc:Work>
    </rdf:RDF>
  </metadata>
</svg>
